X: 1
T: the Haughs o' Cromdale
O: 1818
B: Handwritten version of unknown source in Concord Slow Scottish Jam session binder 2.
R: strathspey
Z: 2015 John Chambers <jc:trillian.mit.edu>
M: C
L: 1/16
K: Edor
e2 "A"|\
"Em"BE3E3F B3AF3A | "Em"BE3E3F "D"D3EF3A |\
"Em"BE3E3F "(C)"B3AF3A | "Bm"B3d BAGF "Em"E4 E2 :|
F2 "B"|\
"D"Dd3d3e dcBc d4 | "D"FA3A3B BAGF A4 |\
"Em"Be3e3f g3fe3d | "Bm"Bd3 BAGF "Em"E4 E3F ||
y4  \
"D"Dd3d3e dcBc d4 | "D"FA3A3B BAGF A4 |\
"Em"Be3e3f "(C)"g3ef3d | "Bm"B3d BAGF "Em"E4 E2 |]
